X:1
T:The Wren Song
M:6/8
L:1/8
K:D
 A,| D2 D D2 F| AAA E2 E| F2 F D2 D| EEE A,2 A,| DDD DDF| AAA E2 E|\
 F2 F G2 E| DDD D2 z| DDD DDF| AAA E2 E| FFF GFE| DDD D2||
